MonoIcons/scalable/status/software-update-urgent-symbolic.svg

<?xml version="1.0" encoding="UTF-8"?>
<svg height="16px" viewBox="0 0 16 16" width="16px" xmlns="http://www.w3.org/2000/svg">
    <path class="warning" d="m 8 0 c -0.257812 0 -0.511719 0.0976562 -0.707031 0.292969 l -1.707031 1.707031 h -2.585938 c -0.550781 0 -1 0.449219 -1 1 v 2.585938 l -1.707031 1.707031 c -0.3906252 0.390625 -0.3906252 1.023437 0 1.414062 l 1.707031 1.707031 v 2.585938 c 0 0.550781 0.449219 1 1 1 h 2.585938 l 1.707031 1.707031 c 0.390625 0.390625 1.023437 0.390625 1.414062 0 l 1.707031 -1.707031 h 2.585938 c 0.550781 0 1 -0.449219 1 -1 v -2.585938 l 1.707031 -1.707031 c 0.390625 -0.390625 0.390625 -1.023437 0 -1.414062 l -1.707031 -1.707031 v -2.585938 c 0 -0.550781 -0.449219 -1 -1 -1 h -2.585938 l -1.707031 -1.707031 c -0.195312 -0.1953128 -0.449219 -0.292969 -0.707031 -0.292969 z m -1 4 h 2 v 5 h -2 z m 1 5.75 c 0.6875 0 1.25 0.5625 1.25 1.25 s -0.5625 1.25 -1.25 1.25 s -1.25 -0.5625 -1.25 -1.25 s 0.5625 -1.25 1.25 -1.25 z m 0 0" fill="#ff7800"/>
</svg>

<svg width="16" height="16" viewBox="0 0 16 16" fill="none" xmlns="http://www.w3.org/2000/svg">
<g clip-path="url(#clip0_231_1074)">
<path d="M8 0C7.74219 0 7.48828 0.0976562 7.29297 0.292969L5.58594 2H3C2.44922 2 2 2.44922 2 3V5.58594L0.292969 7.29297C-0.0976563 7.68359 -0.0976563 8.31641 0.292969 8.70703L2 10.4141V13C2 13.5508 2.44922 14 3 14H5.58594L7.29297 15.707C7.68359 16.0977 8.31641 16.0977 8.70703 15.707L10.4141 14H13C13.5508 14 14 13.5508 14 13V10.4141L15.707 8.70703C16.0977 8.31641 16.0977 7.68359 15.707 7.29297L14 5.58594V3C14 2.44922 13.5508 2 13 2H10.4141L8.70703 0.292969C8.51172 0.0976562 8.25781 0 8 0V0ZM7 4H9V9H7V4ZM8 9.75C8.6875 9.75 9.25 10.3125 9.25 11C9.25 11.6875 8.6875 12.25 8 12.25C7.3125 12.25 6.75 11.6875 6.75 11C6.75 10.3125 7.3125 9.75 8 9.75Z" fill="#00FF00"/>
</g>
<defs>
<clipPath id="clip0_231_1074">
<rect width="16" height="16" fill="white"/>
</clipPath>
</defs>
</svg>
